public/AustraliaFlag.svg

<svg width="42" height="42" viewBox="0 0 42 42" fill="none" xmlns="http://www.w3.org/2000/svg">
<g clip-path="url(#clip0_9_109939)">
<path d="M42 21C42 32.5979 32.5979 42 21 42C9.40209 42 0 32.5979 0 21C0 21.0049 21 0.00237891 21 0C32.5979 0 42 9.40209 42 21Z" fill="#0052B4"/>
<path d="M20.9453 21.0015H21.0015C21.0015 20.9825 21.0015 20.9643 21.0015 20.9453C20.9828 20.9641 20.9641 20.9828 20.9453 21.0015Z" fill="#F0F0F0"/>
<path d="M21 10.9565C21 7.2614 21 4.84009 21 0H20.9965C9.40013 0.00188672 0 9.40308 0 20.9999H10.9565V14.8302L17.1262 20.9999H20.9439C20.9627 20.9812 20.9814 20.9625 21.0001 20.9437C21.0001 19.5289 21.0001 18.2666 21.0001 17.1263L14.8303 10.9565H21Z" fill="#F0F0F0"/>
<path d="M10.6274 2.73828C7.34291 4.60851 4.61242 7.339 2.74219 10.6235V20.9992H8.22048V8.21666L21.0031 8.21657C21.0031 6.48875 21.0031 4.84271 21.0031 2.73828H10.6274Z" fill="#D80027"/>
<path d="M21.0044 18.418L13.5434 10.9571H10.9609L21.0043 21.0004H21.0044C21.0044 21.0004 21.0044 19.2199 21.0044 18.418Z" fill="#D80027"/>
<path d="M12.667 24.6523L13.8195 27.0623L16.4221 26.4607L15.2566 28.8644L17.3496 30.5241L14.7437 31.1115L14.751 33.7827L12.667 32.1115L10.583 33.7827L10.5903 31.1115L7.98438 30.5241L10.0774 28.8644L8.91174 26.4607L11.5145 27.0623L12.667 24.6523Z" fill="#F0F0F0"/>
<path d="M31.4428 29.2148L32.0191 30.4198L33.3204 30.119L32.7376 31.3208L33.7842 32.1507L32.4812 32.4444L32.4848 33.78L31.4428 32.9444L30.4009 33.78L30.4045 32.4444L29.1016 32.1507L30.148 31.3208L29.5653 30.119L30.8665 30.4198L31.4428 29.2148Z" fill="#F0F0F0"/>
<path d="M26.0835 16.4336L26.6597 17.6386L27.9611 17.3377L27.3783 18.5396L28.4248 19.3695L27.1219 19.6632L27.1254 20.9988L26.0835 20.1631L25.0416 20.9988L25.0451 19.6632L23.7422 19.3695L24.7887 18.5396L24.2059 17.3377L25.5073 17.6386L26.0835 16.4336Z" fill="#F0F0F0"/>
<path d="M31.4428 9.12891L32.0191 10.3339L33.3204 10.0331L32.7377 11.235L33.7841 12.0648L32.4812 12.3586L32.4848 13.6942L31.4428 12.8585L30.4009 13.6942L30.4045 12.3586L29.1016 12.0648L30.148 11.235L29.5653 10.0331L30.8665 10.3339L31.4428 9.12891Z" fill="#F0F0F0"/>
<path d="M36.1226 14.6055L36.6988 15.8105L38.0001 15.5096L37.4174 16.7115L38.4638 17.5414L37.1609 17.8351L37.1645 19.1707L36.1226 18.3351L35.0806 19.1707L35.0842 17.8351L33.7812 17.5414L34.8277 16.7115L34.245 15.5096L35.5462 15.8105L36.1226 14.6055Z" fill="#F0F0F0"/>
<path d="M32.7795 21L33.2327 22.395H34.6996L33.5128 23.2573L33.9662 24.6522L32.7795 23.79L31.5928 24.6522L32.046 23.2573L30.8594 22.395H32.3262L32.7795 21Z" fill="#F0F0F0"/>
</g>
<defs>
<clipPath id="clip0_9_109939">
<rect width="42" height="42" fill="white"/>
</clipPath>
</defs>
</svg>

<svg xmlns="http://www.w3.org/2000/svg" width="42" height="42" fill="none" viewBox="0 0 42 42"><g clip-path="url(#a)"><path fill="#0052b4" d="M42 21c0 11.598-9.402 21-21 21S0 32.598 0 21C0 21.005 21 .002 21 0c11.598 0 21 9.402 21 21"/><path fill="#f0f0f0" d="M20.945 21.002h.056v-.057zM21 10.957V0h-.003C9.4.002 0 9.403 0 21h10.957v-6.17l6.17 6.17h3.817l.056-.056v-3.818l-6.17-6.17z"/><path fill="#d80027" d="M10.627 2.738a21.1 21.1 0 0 0-7.885 7.886v10.375H8.22V8.217h12.783V2.738z"/><path fill="#d80027" d="m21.004 18.418-7.46-7.46H10.96L21.004 21z"/><path fill="#f0f0f0" d="m12.667 24.652 1.152 2.41 2.603-.601-1.165 2.403 2.093 1.66-2.606.587.007 2.672-2.084-1.672-2.084 1.672.007-2.672-2.606-.587 2.093-1.66-1.165-2.403 2.602.601zM31.443 29.215l.576 1.205 1.301-.301-.582 1.202 1.046.83-1.303.293.004 1.336-1.042-.836-1.042.836.003-1.336-1.302-.293 1.046-.83-.583-1.202 1.301.3zM26.084 16.434l.576 1.205 1.301-.301-.583 1.202 1.047.83-1.303.293.003 1.336-1.041-.836-1.042.836.003-1.336-1.303-.294 1.047-.83-.583-1.201 1.301.3zM31.443 9.129l.576 1.205 1.301-.3-.582 1.201 1.046.83-1.303.294.004 1.335-1.042-.836-1.042.836.003-1.335-1.302-.294 1.046-.83-.583-1.202 1.301.3zM36.123 14.606l.576 1.204 1.301-.3-.583 1.202 1.047.83-1.303.293.003 1.336-1.041-.836-1.042.836.003-1.336-1.303-.294 1.047-.83-.583-1.201 1.301.3zM32.78 21l.453 1.395H34.7l-1.187.862.453 1.395-1.187-.862-1.186.862.453-1.395-1.187-.862h1.467z"/></g><defs><clipPath id="a"><path fill="#fff" d="M0 0h42v42H0z"/></clipPath></defs></svg>
